X:15051
T: the Gates of Edinburgh [F]
R: reel
O: RSCDS 15-5
B: RSCDS 15-5
B: Rutherford "Rutherford's Complete Collection" c.1770
Z: 1997 by John Chambers <jc:trillian.mit.edu>
M: C|
L: 1/8
%--------------------
K: F
"C7"A2 \
| "F"CDFG A2f2 | cAGF "C7"G2FD | "F"F2f2 "C/E"c2AG | "Dm"F2D2- "C7"D2G2 | "F"A2Ac A2Ac |
| fcAF "C7"G2FD | "F"F2f2 "C/E"c2AG | "Dm"F2D4 :: "C7"c2 | "F"fefa "Dm"fagf | "Gm"gfga "C7"gbag | "F"fefg "Dm"fgaf |
| "Gm"gfed "C7"c2fg | "F"agfa "C7"gfeg | "Dm"fedc "F"f2fg | "F"agfe "C/E"dcAG | "Dm"F2D4 :|
